;START_OF_HEADER
;HEADER_VERSION:0.1
;FLAVOR:Griffin
;GENERATOR.NAME:Cura_SteamEngine
;GENERATOR.VERSION:5.8.1
;GENERATOR.BUILD_DATE:2024-08-28
;TARGET_MACHINE.NAME:Ultimaker 3
;EXTRUDER_TRAIN.0.INITIAL_TEMPERATURE:235
;EXTRUDER_TRAIN.0.MATERIAL.VOLUME_USED:863
;EXTRUDER_TRAIN.0.MATERIAL.GUID:60636bb4-518f-42e7-8237-fe77b194ebe0
;EXTRUDER_TRAIN.0.NOZZLE.DIAMETER:0.4
;EXTRUDER_TRAIN.0.NOZZLE.NAME:AA 0.4
;BUILD_PLATE.INITIAL_TEMPERATURE:80
;PRINT.TIME:636
;PRINT.GROUPS:1
;PRINT.SIZE.MIN.X:9
;PRINT.SIZE.MIN.Y:6
;PRINT.SIZE.MIN.Z:0.2
;PRINT.SIZE.MAX.X:135.434
;PRINT.SIZE.MAX.Y:116.658
;PRINT.SIZE.MAX.Z:6.5
;SLICE_UUID:793735ae-3866-4180-b03e-890c07a2f7ee
;END_OF_HEADER
;Generated with Cura_SteamEngine 5.8.1
T0
M82 ;absolute extrusion mode

G92 E0
M190 S80
M104 S235
M109 S235
G0 F15000 X9 Y6 Z2
G280
G1 F1500 E-6.5
;LAYER_COUNT:43
;LAYER:0
M106 S12.8
M204 S1000
M205 X20 Y20
G0 F15000 X112.299 Y100.87 Z0.2
;TYPE:SKIRT
G1 F1500 E0
G1 F1350 X114.28 Y99.339 E0.0314
G1 X116.58 Y98.342 E0.06283
G1 X129.67 Y98.342 E0.22699
G1 X132.164 Y99.19 E0.26002
G1 X134.529 Y101.625 E0.30259
G1 X135.434 Y104.397 E0.33916
G1 X135.434 Y110.476 E0.41539
G1 X134.862 Y112.662 E0.44373
G1 X133.029 Y115.2 E0.48299
G1 X129.805 Y116.658 E0.52736
G1 X117.212 Y116.658 E0.68528
G1 X114.799 Y116.057 E0.71646
G1 X112.301 Y114.125 E0.75606
G1 X110.489 Y111.499 E0.79607
G1 X109.711 Y108.462 E0.83539
G1 X109.756 Y106.307 E0.86242
G1 X110.471 Y103.516 E0.89855
G1 X112.299 Y100.87 E0.93888
G0 F15000 X112.592 Y101.149
G1 F1350 X114.485 Y99.686 E0.96888
G1 X116.663 Y98.742 E0.99865
G1 X129.603 Y98.742 E1.16092
G1 X131.944 Y99.538 E1.19193
G1 X134.178 Y101.838 E1.23214
G1 X135.034 Y104.46 E1.26673
G1 X135.034 Y110.425 E1.34153
G1 X134.494 Y112.489 E1.36829
G1 X132.767 Y114.88 E1.40527
G1 X129.72 Y116.258 E1.44721
G1 X117.261 Y116.258 E1.60345
G1 X114.977 Y115.689 E1.63297
G1 X112.594 Y113.846 E1.67075
G1 X110.858 Y111.33 E1.70908
G1 X110.112 Y108.418 E1.74678
G1 X110.155 Y106.359 E1.7726
G1 X110.84 Y103.685 E1.80722
G1 X112.592 Y101.149 E1.84587
G0 F15000 X112.884 Y101.43
G1 F1350 X114.693 Y100.032 E1.87454
G1 X116.746 Y99.142 E1.9026
G1 X129.536 Y99.142 E2.06299
G1 X131.724 Y99.886 E2.09198
G1 X133.827 Y102.051 E2.12983
G1 X134.634 Y104.523 E2.16244
G1 X134.634 Y110.374 E2.23581
G1 X134.126 Y112.316 E2.26098
G1 X132.505 Y114.56 E2.2957
G1 X129.632 Y115.858 E2.33523
G1 X117.31 Y115.858 E2.48975
G1 X115.155 Y115.321 E2.51761
G1 X112.887 Y113.567 E2.55356
G1 X111.227 Y111.161 E2.59022
G1 X110.513 Y108.374 E2.6263
G1 X110.554 Y106.411 E2.65092
G1 X111.209 Y103.854 E2.68402
G1 X112.884 Y101.43 E2.72097
G0 F15000 X113.176 Y101.711
G1 F1350 X114.901 Y100.378 E2.74831
G1 X116.829 Y99.542 E2.77466
G1 X129.469 Y99.542 E2.93317
G1 X131.504 Y100.234 E2.96012
G1 X133.476 Y102.264 E2.99562
G1 X134.234 Y104.586 E3.02625
G1 X134.234 Y110.323 E3.09819
G1 X133.758 Y112.143 E3.12178
G1 X132.245 Y114.239 E3.1542
G1 X129.544 Y115.458 E3.19136
G1 X117.359 Y115.458 E3.34416
G1 X115.333 Y114.953 E3.37035
G1 X113.18 Y113.288 E3.40448
G1 X111.596 Y110.992 E3.43946
G1 X110.914 Y108.33 E3.47392
G1 X110.953 Y106.463 E3.49734
G1 X111.578 Y104.023 E3.52892
G1 X113.176 Y101.711 E3.56417
G0 F15000 X113.468 Y101.992
G1 F1350 X115.109 Y100.724 E3.59018
G1 X116.912 Y99.942 E3.61482
G1 X129.402 Y99.942 E3.77145
G1 X131.284 Y100.582 E3.79638
G1 X133.125 Y102.477 E3.82951
G1 X133.834 Y104.649 E3.85816
G1 X133.834 Y110.272 E3.92868
G1 X133.39 Y111.97 E3.95069
G1 X131.984 Y113.92 E3.98083
G1 X129.458 Y115.058 E4.01558
G1 X117.408 Y115.058 E4.16669
G1 X115.511 Y114.585 E4.19121
G1 X113.473 Y113.009 E4.22351
G1 X111.965 Y110.823 E4.25682
G1 X111.315 Y108.286 E4.28966
G1 X111.352 Y106.515 E4.31187
G1 X111.947 Y104.192 E4.34195
G1 X113.468 Y101.992 E4.37549
G0 F15000 X113.761 Y102.272
G1 F1350 X115.317 Y101.07 E4.40014
G1 X116.995 Y100.342 E4.42308
G1 X129.335 Y100.342 E4.57783
G1 X131.064 Y100.93 E4.60073
G1 X132.774 Y102.69 E4.6315
G1 X133.434 Y104.712 E4.65818
G1 X133.434 Y110.221 E4.72726
G1 X133.022 Y111.795 E4.74766
G1 X131.723 Y113.601 E4.77556
G1 X129.372 Y114.658 E4.80789
G1 X117.457 Y114.658 E4.95731
G1 X115.689 Y114.217 E4.98016
G1 X113.766 Y112.73 E5.01064
G1 X112.334 Y110.654 E5.04227
G1 X111.716 Y108.242 E5.07349
G1 X111.751 Y106.571 E5.09445
G1 X112.317 Y104.36 E5.12307
G1 X113.761 Y102.272 E5.15491
G0 F15000 X114.055 Y102.55
G1 F1350 X115.522 Y101.417 E5.17815
G1 X117.078 Y100.742 E5.19942
G1 X129.268 Y100.742 E5.35229
G1 X130.844 Y101.278 E5.37317
G1 X132.423 Y102.903 E5.40158
G1 X133.034 Y104.775 E5.42627
G1 X133.034 Y110.17 E5.49393
G1 X132.654 Y111.622 E5.51275
G1 X131.462 Y113.281 E5.53837
G1 X129.286 Y114.258 E5.56828
G1 X117.506 Y114.258 E5.71601
G1 X115.867 Y113.849 E5.73719
G1 X114.059 Y112.451 E5.76585
G1 X112.703 Y110.485 E5.7958
G1 X112.117 Y108.198 E5.82541
G1 X112.15 Y106.627 E5.84511
G1 X112.687 Y104.528 E5.87228
G1 X114.055 Y102.55 E5.90244
G0 F15000 X114.349 Y102.828
G1 F1350 X115.727 Y101.764 E5.92427
G1 X117.161 Y101.142 E5.94388
G1 X129.201 Y101.142 E6.09486
G1 X130.624 Y101.626 E6.11371
G1 X132.072 Y103.116 E6.13977
G1 X132.634 Y104.838 E6.16248
G1 X132.634 Y110.119 E6.22871
G1 X132.286 Y111.449 E6.24595
G1 X131.2 Y112.961 E6.26929
G1 X129.2 Y113.858 E6.29678
G1 X117.555 Y113.858 E6.44281
G1 X116.045 Y113.481 E6.46233
G1 X114.352 Y112.172 E6.48917
G1 X113.072 Y110.316 E6.51744
G1 X112.518 Y108.154 E6.54543
G1 X112.549 Y106.683 E6.56388
G1 X113.057 Y104.696 E6.5896
G1 X114.349 Y102.828 E6.61808
G0 F15000 X114.642 Y103.107
G1 F1350 X115.932 Y102.111 E6.63852
G1 X117.244 Y101.542 E6.65645
G1 X129.134 Y101.542 E6.80556
G1 X130.404 Y101.974 E6.82238
G1 X131.721 Y103.329 E6.84608
G1 X132.234 Y104.901 E6.86681
G1 X132.234 Y110.068 E6.93161
G1 X131.918 Y111.276 E6.94727
G1 X130.938 Y112.641 E6.96834
G1 X129.114 Y113.458 E6.9934
G1 X117.604 Y113.458 E7.13774
G1 X116.223 Y113.113 E7.15559
G1 X114.645 Y111.893 E7.18061
G1 X113.441 Y110.147 E7.2072
G1 X112.919 Y108.11 E7.23357
G1 X112.948 Y106.739 E7.25077
G1 X113.428 Y104.863 E7.27505
G1 X114.642 Y103.107 E7.30182
G0 F15000 X114.935 Y103.387
G1 F1350 X116.139 Y102.457 E7.3209
G1 X117.327 Y101.942 E7.33714
G1 X129.067 Y101.942 E7.48436
G1 X130.184 Y102.322 E7.49916
G1 X131.37 Y103.542 E7.5205
G1 X131.834 Y104.964 E7.53925
G1 X131.834 Y110.017 E7.60262
G1 X131.55 Y111.103 E7.6167
G1 X130.676 Y112.321 E7.6355
G1 X129.029 Y113.058 E7.65813
G1 X117.653 Y113.058 E7.80078
G1 X116.401 Y112.745 E7.81697
G1 X114.938 Y111.614 E7.84016
G1 X113.81 Y109.978 E7.86508
G1 X113.32 Y108.066 E7.88983
G1 X113.347 Y106.795 E7.90577
G1 X113.798 Y105.031 E7.92861
G1 X114.935 Y103.387 E7.95367
G0 F15000 X115.229 Y103.665
G1 F1350 X116.344 Y102.804 E7.97134
G1 X117.41 Y102.342 E7.98591
G1 X129 Y102.342 E8.13125
G1 X129.964 Y102.67 E8.14402
G1 X131.019 Y103.755 E8.163
G1 X131.434 Y105.027 E8.17978
G1 X131.434 Y109.966 E8.24171
G1 X131.182 Y110.93 E8.25421
G1 X130.414 Y112.001 E8.27074
G1 X128.944 Y112.658 E8.29093
G1 X117.702 Y112.658 E8.43191
G1 X116.579 Y112.377 E8.44642
G1 X115.231 Y111.335 E8.46779
G1 X114.179 Y109.809 E8.49103
G1 X113.721 Y108.022 E8.51417
G1 X113.746 Y106.851 E8.52885
G1 X114.168 Y105.199 E8.55024
G1 X115.229 Y103.665 E8.57363
G0 F15000 X115.522 Y103.944
G1 F1350 X116.549 Y103.151 E8.5899
G1 X117.493 Y102.742 E8.6028
G1 X128.933 Y102.742 E8.74626
G1 X129.744 Y103.018 E8.757
G1 X130.668 Y103.968 E8.77362
G1 X131.034 Y105.09 E8.78842
G1 X131.034 Y109.915 E8.84893
G1 X130.814 Y110.757 E8.85984
G1 X130.153 Y111.681 E8.87409
G1 X128.859 Y112.258 E8.89186
G1 X117.751 Y112.258 E9.03116
G1 X116.757 Y112.009 E9.04401
G1 X115.524 Y111.056 E9.06355
G1 X114.548 Y109.64 E9.08512
G1 X114.122 Y107.978 E9.10663
G1 X114.145 Y106.907 E9.12007
G1 X114.539 Y105.366 E9.14001
G1 X115.522 Y103.944 E9.16169
G0 F15000 X115.815 Y104.224
G1 F1350 X116.756 Y103.497 E9.1766
G1 X117.576 Y103.142 E9.18781
G1 X128.866 Y103.142 E9.32939
G1 X129.524 Y103.366 E9.33811
G1 X130.317 Y104.181 E9.35237
G1 X130.634 Y105.153 E9.36519
G1 X130.634 Y109.864 E9.42426
G1 X130.446 Y110.585 E9.43361
G1 X129.891 Y111.361 E9.44557
G1 X128.773 Y111.858 E9.46092
G1 X117.8 Y111.858 E9.59852
G1 X116.936 Y111.641 E9.60969
G1 X115.817 Y110.777 E9.62742
G1 X114.917 Y109.471 E9.64731
G1 X114.523 Y107.934 E9.66721
G1 X114.544 Y106.963 E9.67939
G1 X114.909 Y105.534 E9.69788
G1 X115.815 Y104.224 E9.71786
G0 F15000 X116.109 Y104.502
G1 F1350 X116.961 Y103.844 E9.73136
G1 X117.659 Y103.542 E9.7409
G1 X128.799 Y103.542 E9.8806
G1 X129.304 Y103.714 E9.88729
G1 X129.966 Y104.394 E9.89919
G1 X130.234 Y105.216 E9.91003
G1 X130.234 Y109.813 E9.96768
G1 X130.078 Y110.412 E9.97544
G1 X129.63 Y111.041 E9.98512
G1 X128.687 Y111.458 E9.99805
G1 X117.85 Y111.458 E10.13395
G1 X117.114 Y111.273 E10.14347
G1 X116.11 Y110.498 E10.15938
G1 X115.286 Y109.302 E10.17759
G1 X114.924 Y107.89 E10.19587
G1 X114.943 Y107.019 E10.20679
G1 X115.279 Y105.702 E10.22384
G1 X116.109 Y104.502 E10.24214
G0 F15000 X116.402 Y104.781
G1 F1350 X117.166 Y104.191 E10.25424
G1 X117.742 Y103.942 E10.26211
G1 X128.799 Y103.942 E10.40077
G1 X129.017 Y103.993 E10.40358
G1 X129.615 Y104.607 E10.41432
G1 X129.834 Y105.279 E10.42319
G1 X129.834 Y109.813 E10.48005
G1 X129.751 Y110.181 E10.48478
G1 X129.369 Y110.721 E10.49307
G1 X128.603 Y111.058 E10.50357
G1 X117.9 Y111.058 E10.63779
G1 X117.292 Y110.905 E10.64565
G1 X116.403 Y110.219 E10.65973
G1 X115.655 Y109.133 E10.67627
G1 X115.325 Y107.846 E10.69293
G1 X115.342 Y107.075 E10.7026
G1 X115.65 Y105.869 E10.71821
G1 X116.402 Y104.781 E10.73479
G0 F15000 X116.695 Y105.061
G1 F1350 X117.411 Y104.508 E10.74614
G1 X117.824 Y104.342 E10.75172
G1 X128.799 Y104.342 E10.88935
G1 X129.264 Y104.82 E10.89771
G1 X129.434 Y105.342 E10.9046
G1 X129.434 Y109.813 E10.96067
G1 X129.379 Y110.015 E10.96329
G1 X129.107 Y110.401 E10.96921
G1 X128.518 Y110.658 E10.97727
G1 X117.9 Y110.658 E11.11043
G1 X117.471 Y110.538 E11.11601
G1 X116.696 Y109.94 E11.12829
G1 X116.024 Y108.964 E11.14315
G1 X115.726 Y107.802 E11.15819
G1 X115.741 Y107.131 E11.16661
G1 X116.02 Y106.037 E11.18077
G1 X116.695 Y105.061 E11.19565
G0 F15000 X117.28 Y105.621
G1 F1350 X117.9 Y105.142 E11.20547
G1 X128.533 Y105.142 E11.33881
G1 X128.634 Y105.342 E11.34162
G1 X128.634 Y109.757 E11.39699
G1 X128.434 Y109.858 E11.3998
G1 X117.9 Y109.858 E11.5319
G1 X117.281 Y109.38 E11.54171
G1 X116.762 Y108.626 E11.55319
G1 X116.528 Y107.714 E11.56499
G1 X116.528 Y107.286 E11.57036
G1 X116.762 Y106.371 E11.5822
G1 X117.28 Y105.621 E11.59364
G0 F15000 X116.988 Y105.34
G1 F1350 X117.655 Y104.825 E11.6042
G1 X117.9 Y104.742 E11.60745
G1 X128.665 Y104.742 E11.74244
G1 X128.89 Y104.962 E11.74639
G1 X129.034 Y105.342 E11.75149
G1 X129.034 Y109.813 E11.80755
G1 X128.884 Y110.069 E11.81128
G1 X128.434 Y110.258 E11.8174
G1 X117.9 Y110.258 E11.9495
G1 X117.656 Y110.175 E11.95273
G1 X116.988 Y109.659 E11.96331
G1 X116.393 Y108.795 E11.97647
G1 X116.127 Y107.758 E11.98989
G1 X116.14 Y107.187 E11.99706
G1 X116.391 Y106.204 E12.00978
G1 X116.988 Y105.34 E12.02295
M204 S429
G1 F1500 E5.52295
;MESH:Nanobot.STL
G0 F15000 X118.112 Y105.76
G0 X128.232 Y109.456
;TYPE:WALL-OUTER
G1 F1500 E12.02295
G1 F1350 X128.232 Y105.54 E12.07697
G1 X118.037 Y105.54 E12.2176
G1 X117.575 Y105.9 E12.22568
G1 X117.129 Y106.541 E12.23645
G1 X116.928 Y107.314 E12.24747
G1 X116.928 Y107.682 E12.25255
G1 X117.129 Y108.455 E12.26356
G1 X117.575 Y109.1 E12.27438
G1 X118.037 Y109.456 E12.28243
G1 X128.232 Y109.456 E12.42306
M204 S1000
G0 F15000 X128.232 Y109.256
G0 X127.832 Y109.056
;TYPE:WALL-INNER
G1 F1350 X127.832 Y105.94 E12.46018
G1 X118.174 Y105.94 E12.57524
G1 X117.869 Y106.178 E12.57985
G1 X117.498 Y106.711 E12.58759
G1 X117.328 Y107.365 E12.59564
G1 X117.328 Y107.631 E12.59881
G1 X117.499 Y108.286 E12.60687
G1 X117.869 Y108.821 E12.61462
G1 X118.173 Y109.056 E12.6192
G1 X127.832 Y109.056 E12.73427
G0 F15000 X127.492 Y108.716
;TYPE:SKIN
G1 F1350 X127.492 Y106.28 E12.76184
G1 X118.289 Y106.28 E12.866
G1 X118.119 Y106.412 E12.86843
G1 X117.813 Y106.854 E12.87452
G1 X117.643 Y107.497 E12.88204
G1 X117.813 Y108.138 E12.88955
G1 X118.12 Y108.581 E12.89565
G1 X118.29 Y108.716 E12.89811
G1 X127.492 Y108.716 E13.00225
G0 F15000 X127.792 Y108.716
G0 X127.72 Y106.052
G0 X126.845 Y105.98
G0 X126.845 Y106.48
G1 F1350 X127.292 Y106.927 E13.00941
G0 F15000 X127.292 Y107.493
G1 F1350 X126.279 Y106.48 E13.02562
G0 F15000 X125.714 Y106.48
G1 F1350 X127.292 Y108.059 E13.05089
G0 F15000 X127.183 Y108.515
G1 F1350 X125.148 Y106.48 E13.08346
G0 F15000 X124.582 Y106.48
G1 F1350 X126.617 Y108.515 E13.11603
G0 F15000 X126.052 Y108.515
G1 F1350 X124.017 Y106.48 E13.1486
G0 F15000 X123.451 Y106.48
G1 F1350 X125.486 Y108.515 E13.18117
G0 F15000 X124.92 Y108.515
G1 F1350 X122.885 Y106.48 E13.21374
G0 F15000 X122.32 Y106.48
G1 F1350 X124.355 Y108.515 E13.24631
G0 F15000 X123.789 Y108.515
G1 F1350 X121.754 Y106.48 E13.27889
G0 F15000 X121.188 Y106.48
G1 F1350 X123.223 Y108.515 E13.31146
G0 F15000 X122.658 Y108.515
M104 S232.3
G1 F1350 X120.623 Y106.48 E13.34403
G0 F15000 X120.057 Y106.48
G1 F1350 X122.092 Y108.515 E13.3766
G0 F15000 X121.526 Y108.515
G1 F1350 X119.491 Y106.48 E13.40917
G0 F15000 X118.925 Y106.48
G1 F1350 X120.961 Y108.515 E13.44175
G0 F15000 X120.395 Y108.515
G1 F1350 X118.36 Y106.48 E13.47432
G0 F15000 X118.109 Y106.796
G1 F1350 X119.829 Y108.515 E13.50184
G0 F15000 X119.263 Y108.515
G1 F1350 X117.932 Y107.184 E13.52315
G0 F15000 X117.911 Y107.728
G1 F1350 X118.698 Y108.515 E13.53574
M204 S429
;MESH:NONMESH
G0 F600 X118.698 Y108.515 Z0.35
G0 F15000 X118.698 Y109.016
G0 X127.964 Y109.188
G0 X128.408 Y109.632
;TIME_ELAPSED:53.170027
;LAYER:1
;note -- min layer time used
M106 S38.2
;TYPE:WALL-OUTER
;MESH:Nanobot.STL
G1 F1414.4 X128.408 Y105.368 E13.57585
G1 X117.991 Y105.368 E13.67382
G1 X117.451 Y105.773 E13.68017
G1 X116.973 Y106.469 E13.68811
G1 X116.752 Y107.302 E13.69622
G1 X116.752 Y107.694 E13.6999
G1 X116.973 Y108.531 E13.70805
G1 X117.451 Y109.223 E13.71596
G1 X117.992 Y109.632 E13.72234
G1 X128.408 Y109.632 E13.8203
M204 S1500
G0 F15000 X128.408 Y109.432
G0 X128.008 Y109.232
;TYPE:WALL-INNER
G1 F1414.4 X128.008 Y105.768 E13.85288
G1 X118.124 Y105.768 E13.94584
G1 X117.743 Y106.054 E13.95032
G1 X117.342 Y106.638 E13.95699
G1 X117.152 Y107.354 E13.96395
G1 X117.152 Y107.642 E13.96666
G1 X117.342 Y108.361 E13.97366
G1 X117.743 Y108.943 E13.9803
G1 X118.126 Y109.232 E13.98482
G1 X128.008 Y109.232 E14.07776
M204 S1000
G0 F15000 X127.668 Y108.892
;TYPE:SKIN
G1 F1414.4 X127.668 Y106.108 E14.10263
G1 X118.235 Y106.108 E14.18692
G1 X117.99 Y106.293 E14.18966
G1 X117.653 Y106.781 E14.19496
G1 X117.466 Y107.494 E14.20155
G1 X117.657 Y108.215 E14.20821
G1 X117.991 Y108.704 E14.2135
G1 X118.24 Y108.892 E14.21629
G1 X127.668 Y108.892 E14.30053
G0 F15000 X127.199 Y108.692
G1 F1414.4 X127.468 Y108.423 E14.30393
G0 F15000 X127.468 Y107.857
G1 F1414.4 X126.633 Y108.692 E14.31448
G0 F15000 X126.067 Y108.692
G1 F1414.4 X127.468 Y107.291 E14.33218
G0 F15000 X127.468 Y106.726
G1 F1414.4 X125.502 Y108.692 E14.35703
G0 F15000 X124.936 Y108.692
G1 F1414.4 X127.32 Y106.308 E14.38715
G0 F15000 X126.755 Y106.308
G1 F1414.4 X124.37 Y108.692 E14.41728
G0 F15000 X123.804 Y108.692
G1 F1414.4 X126.189 Y106.308 E14.44741
G0 F15000 X125.623 Y106.308
G1 F1414.4 X123.239 Y108.692 E14.47754
G0 F15000 X122.673 Y108.692
G1 F1414.4 X125.057 Y106.308 E14.50766
G0 F15000 X124.492 Y106.308
G1 F1414.4 X122.107 Y108.692 E14.53779
G0 F15000 X121.542 Y108.692
G1 F1414.4 X123.926 Y106.308 E14.56791
G0 F15000 X123.36 Y106.308
G1 F1414.4 X120.976 Y108.692 E14.59804
G0 F15000 X120.41 Y108.692
